X:1
L:1/8
M:2/2
K:A
 ed | cAEA cAec | dAeA f2 ed | cAEA cAec | fdBG A2 ed | cAEA cAec | dAeA f2 fg | agae fedc |1 
 dfec A2 :|2 dfec A2 AB |: cecA BeBG | ABcA E2 E2 | CEAE FGBB | AccA B2 AB | cecA BcBB | 
 ABcA E2 E2 | CEAE FGBB |1 Acec A2 AB :|2 Acec A2 ed ||
